assets/Horse/Flat/horse_flat.svg

<svg width="32" height="32" viewBox="0 0 32 32" fill="none" xmlns="http://www.w3.org/2000/svg">
<path d="M8.98608 5.28838H7.59613V2.99713H13.3337C13.569 2.99713 13.76 3.18838 13.76 3.42401C13.7596 4.08666 13.4146 4.66834 12.8948 4.99896H15.5625C15.8034 4.99896 15.9981 5.19459 15.9981 5.43521C15.9985 6.5066 15.4516 7.44985 14.6219 8.00018H17.2045C17.4323 8.00018 17.6165 8.18518 17.6165 8.41268C17.6171 10.6289 15.8234 12.4252 13.6102 12.4252H10.9852V8.50959H8.98608V5.28838Z" fill="#1C1C1C"/>
<path d="M28.0025 6.6477V5.4852C28.0025 5.21707 28.2197 4.99957 28.4874 4.99957C29.3225 4.99957 29.9996 5.6777 29.9996 6.51395V8.5027C29.9996 9.88332 28.8818 11.0027 27.5032 11.0027H26.3492C26.1526 11.0027 25.9934 11.1621 25.9934 11.3589V16.0002H23.9962V9.50395C23.9962 8.12332 25.114 7.00395 26.4927 7.00395H27.6467C27.8433 7.00395 28.0025 6.84457 28.0025 6.6477Z" fill="#1C1C1C"/>
<path d="M3.71346 4.72456C3.85076 3.75018 4.68708 3.00018 5.69816 3.00018H7.4663C7.4663 4.10893 6.56881 5.00768 5.46162 5.00768H3.95499C3.80458 5.00768 3.69223 4.87331 3.71346 4.72456Z" fill="#1C1C1C"/>
<path d="M18.9758 23.1746V15.3865L23.1249 15.2252V22.254L23.1006 22.2627L19.226 26.1427C19.0663 26.3033 18.9764 26.5202 18.9764 26.7465V27.684C18.9764 27.859 18.8347 28.0002 18.6606 28.0002H17.2944C17.1196 28.0002 16.9786 27.8583 16.9786 27.684V26.7465C16.9786 25.9846 17.275 25.2677 17.813 24.729L18.6949 23.8508C18.8747 23.6715 18.9758 23.4283 18.9758 23.1746Z" fill="#6D4534"/>
<path d="M4.21463 23.4171C4.36317 23.5658 4.60408 23.5658 4.75263 23.4171L5.62577 22.5415C5.77431 22.3927 5.77431 22.1515 5.62577 22.0027L5.23445 21.6108C5.07842 21.454 4.99042 21.2415 4.99042 21.0202V18.6615C4.99042 18.2952 5.28687 17.999 5.65199 17.999H12.9885V15.999H5.65199C4.18343 15.999 2.99323 17.1908 2.99323 18.6615V21.0202C2.99323 21.7777 3.28781 22.4896 3.82268 23.0252L4.21463 23.4171Z" fill="#6D4534"/>
<path d="M16.0105 12.0002H23.05C25.7637 12.0002 27.9631 14.2027 27.9631 16.9202V24.0996C27.9631 24.6827 27.7646 25.2483 27.4008 25.704L24.1666 29.7521C24.0417 29.909 23.852 30.0002 23.6517 30.0002H22.4346C22.2436 30.0002 22.135 29.7821 22.2493 29.629L24.488 26.6402C24.7994 26.2246 24.9673 25.7196 24.9673 25.2002C24.9673 24.4446 24.6122 23.7333 24.0087 23.2802L21.4959 21.3933C21.1564 21.1383 20.7433 21.0002 20.3188 21.0002H12.3145C11.6192 21.0002 10.9545 20.8558 10.3497 20.594C10.2518 20.5521 10.1382 20.574 10.0627 20.6496L9.18326 21.5302C9.0522 21.6621 8.98292 21.8396 8.99041 22.0271C8.9979 22.199 9.07716 22.3602 9.19886 22.4821L10.4615 23.7558C10.6181 23.9121 10.8303 24.0002 11.0513 24.0002H11.5075C11.7715 24.0002 11.9856 24.2146 11.9856 24.479V25.5215C11.9856 25.7858 11.7715 26.0002 11.5075 26.0002H11.0513C10.2948 26.0002 9.58395 25.7052 9.04907 25.1696L7.80395 23.914C7.29716 23.4058 6.99384 22.7215 6.99259 22.0033C6.99134 21.2902 7.26845 20.6196 7.7715 20.1158L8.41309 19.4733C8.50734 19.379 8.51483 19.229 8.43182 19.1246C7.8932 18.4471 7.52559 17.6227 7.40014 16.7115L6.29045 8.66708C6.26362 8.4752 6.06452 8.35958 5.8854 8.43208L4.23674 9.09729L2.5 8.5L2.97298 6.94618L6.34226 3.29458C6.39156 3.24145 6.4184 3.17208 6.4184 3.1002V2.2702C6.4184 2.05708 6.65369 1.92833 6.83282 2.0427L8.84873 3.55333C9.31558 3.9202 9.68755 4.25645 9.96029 4.74833L12.9985 10.2252C13.6058 11.3208 14.7592 12.0002 16.0105 12.0002Z" fill="#A56953"/>
<path d="M5.4993 7C5.22343 7 5 6.78408 5 6.51749V5.98251C5 5.71592 5.22343 5.5 5.4993 5.5C5.77516 5.5 5.99859 5.71592 5.99859 5.98251V6.51749C5.99859 6.78408 5.77516 7 5.4993 7Z" fill="#1C1C1C"/>
<path d="M2.9982 6.9184C2.6618 7.2809 2.25924 7.69715 2.25924 7.69715C2.03955 7.95402 1.94967 8.3034 2.02769 8.6434C2.18247 9.3184 2.86651 9.6509 3.5081 9.39215L4.27702 9.08152L2.9982 6.9184Z" fill="#E39D89"/>
</svg>

<svg xmlns="http://www.w3.org/2000/svg" width="32" height="32" fill="none"><path fill="#1C1C1C" d="M8.986 5.288h-1.39v-2.29h5.738c.235 0 .426.19.426.426 0 .663-.345 1.244-.865 1.575h2.668c.24 0 .435.196.435.436A3.071 3.071 0 0 1 14.622 8h2.582c.228 0 .412.185.412.413a4.009 4.009 0 0 1-4.006 4.012h-2.625V8.51H8.986V5.288ZM28.003 6.648V5.485c0-.268.217-.485.484-.485C29.323 5 30 5.678 30 6.514v1.989c0 1.38-1.118 2.5-2.497 2.5H26.35a.356.356 0 0 0-.356.356V16h-1.997V9.504c0-1.38 1.118-2.5 2.497-2.5h1.154c.196 0 .356-.16.356-.356ZM3.713 4.725A2.006 2.006 0 0 1 5.698 3h1.768a2.006 2.006 0 0 1-2.004 2.008H3.955a.246.246 0 0 1-.242-.283Z"/><path fill="#6D4534" d="M18.976 23.175v-7.789l4.149-.16v7.028l-.024.009-3.875 3.88a.856.856 0 0 0-.25.604v.937a.316.316 0 0 1-.315.316h-1.367a.316.316 0 0 1-.315-.316v-.938c0-.761.296-1.478.834-2.017l.882-.878c.18-.18.28-.423.28-.676ZM4.215 23.417a.38.38 0 0 0 .538 0l.873-.876a.381.381 0 0 0 0-.538l-.392-.392a.838.838 0 0 1-.244-.59v-2.36c0-.366.297-.662.662-.662h7.337v-2H5.652a2.66 2.66 0 0 0-2.659 2.662v2.36c0 .757.295 1.469.83 2.004l.392.392Z"/><path fill="#A56953" d="M16.01 12h7.04a4.916 4.916 0 0 1 4.913 4.92v7.18c0 .583-.198 1.148-.562 1.604l-3.234 4.048a.658.658 0 0 1-.515.248h-1.217a.232.232 0 0 1-.186-.371l2.239-2.989a2.4 2.4 0 0 0-.48-3.36l-2.512-1.887A1.96 1.96 0 0 0 20.319 21h-8.004c-.696 0-1.36-.144-1.965-.406a.26.26 0 0 0-.287.056l-.88.88a.662.662 0 0 0 .016.952l1.262 1.274a.835.835 0 0 0 .59.244h.457c.264 0 .478.215.478.479v1.043a.478.478 0 0 1-.479.478h-.456a2.81 2.81 0 0 1-2.002-.83l-1.245-1.256a2.727 2.727 0 0 1-.811-1.91 2.648 2.648 0 0 1 .778-1.888l.642-.643a.262.262 0 0 0 .019-.348A4.954 4.954 0 0 1 7.4 16.712L6.29 8.667a.297.297 0 0 0-.405-.235l-1.648.665L2.5 8.5l.473-1.554 3.37-3.651a.285.285 0 0 0 .075-.195v-.83a.27.27 0 0 1 .415-.227l2.016 1.51c.467.367.839.703 1.111 1.195l3.038 5.477A3.444 3.444 0 0 0 16.011 12Z"/><path fill="#1C1C1C" d="M5.5 7a.491.491 0 0 1-.5-.483v-.534c0-.267.223-.483.5-.483.275 0 .499.216.499.483v.534a.491.491 0 0 1-.5.483Z"/><path fill="#E39D89" d="M2.998 6.918c-.336.363-.739.78-.739.78-.22.256-.31.605-.231.945.154.675.839 1.008 1.48.75l.769-.311-1.279-2.164Z"/></svg>
